build/assets/images/proyectos/logos/logo-helvetia.svg

<svg width="200" height="200" viewBox="0 0 200 200" fill="none" xmlns="http://www.w3.org/2000/svg">
<rect width="200" height="200" fill="white"/>
<g clip-path="url(#clip0)">
<path d="M25.8182 89.9697V99.5859H25.899C27.1919 97.8081 28.8081 97 30.9899 97C35.0303 97 36.9697 99.7475 36.9697 103.788V113.727H31.3131V105.404C31.3131 103.545 31.0707 101.525 28.7273 101.525C26.4646 101.525 25.7374 103.465 25.7374 105.404V113.727H20.0808V89.9697H25.8182Z" fill="black"/>
<path d="M50.9495 103.222C50.707 101.687 49.2525 100.636 47.7171 100.636C46.101 100.636 44.7272 101.525 44.3232 103.222H50.9495ZM56.2828 106.535H44.3232C44.3232 108.879 45.5353 110.172 47.8788 110.172C49.0909 110.172 49.9798 109.768 50.6262 108.717H56.1212C55.2323 112.515 51.5959 114.293 47.9596 114.293C42.6262 114.293 38.6666 111.222 38.6666 105.646C38.6666 100.232 42.303 97 47.5555 97C53.1313 97 56.2828 100.475 56.2828 105.97V106.535Z" fill="black"/>
<path d="M57.899 113.727H63.5556V89.9697H57.899V113.727" fill="black"/>
<path d="M74.3838 105.808L78.1818 97.4849H84.5657L76.2424 113.727H72.5253L64.1212 97.4849H70.5051L74.3838 105.808Z" fill="black"/>
<path d="M95.4747 103.222C95.2323 101.687 93.7778 100.636 92.2424 100.636C90.6262 100.636 89.2525 101.525 88.8485 103.222H95.4747ZM100.727 106.535H88.7676C88.7676 108.879 89.9798 110.172 92.3232 110.172C93.5353 110.172 94.4242 109.768 95.0707 108.717H100.566C99.6767 112.515 96.0404 114.293 92.404 114.293C87.0707 114.293 83.1111 111.222 83.1111 105.646C83.1111 100.232 86.7474 97 92 97C97.5757 97 100.727 100.475 100.727 105.97V106.535Z" fill="black"/>
<path d="M109.131 113.727H103.475V102.253H101.616V97.4848H103.475V92.6364H109.131V97.4848H112.364V102.253H109.131V113.727" fill="black"/>
<path d="M119.071 113.727H113.414V97.4849H119.071V113.727ZM119.475 92.3939C119.475 94.1717 118.02 95.6263 116.323 95.6263C114.545 95.6263 113.172 94.1717 113.172 92.3939C113.172 90.6162 114.626 89.1616 116.323 89.1616C118.02 89.1616 119.475 90.6162 119.475 92.3939Z" fill="black"/>
<path d="M126.586 105.646C126.586 107.667 127.96 109.283 130.222 109.283C132.566 109.283 133.859 107.667 133.859 105.646C133.859 103.626 132.485 102.01 130.222 102.01C127.96 101.929 126.586 103.626 126.586 105.646ZM139.434 113.727H133.778V111.949H133.697C132.727 113.566 130.707 114.293 128.849 114.293C124.081 114.293 120.768 110.253 120.768 105.646C120.768 101.04 124.081 97 128.768 97C130.626 97 132.566 97.7273 133.697 99.101V97.4848H139.354V113.727" fill="black"/>
<path d="M153.091 108.151L159.475 106.455L160.849 103.222L158.02 96.5959L157.374 98.2121L153.091 108.151Z" fill="black"/>
<path d="M167.394 87.3838L164.727 81.3232L158.263 82.7778L160.849 88.9192L167.394 87.3838Z" fill="black"/>
<path d="M157.535 95.6262L157.616 95.3838L160.202 89.404L157.616 83.5858L147.515 107.505L152.121 108.313L157.535 95.6262Z" fill="black"/>
<path d="M160.202 89.404L160.04 89.0808L157.697 83.505L157.616 83.5858L160.202 89.404Z" fill="black"/>
<path d="M159.636 107.344L154.384 108.636L163.758 110.333L162.788 107.909L159.636 107.344Z" fill="black"/>
<path d="M152.202 109.202L150.424 108.879H150.505L147.111 108.232L145.01 113.404L166.828 117.364L164.242 111.303L152.202 109.202Z" fill="black"/>
<path d="M150.586 108.798L147.111 108.232L150.505 108.879L150.586 108.798Z" fill="black"/>
<path d="M150.505 108.879H150.424L152.202 109.202L152.121 109.121L150.505 108.879Z" fill="black"/>
<path d="M152.606 109.202L152.364 109.121L152.202 109.202L164.242 111.303V111.222L152.606 109.202Z" fill="black"/>
<path d="M152.202 109.202L152.364 109.121H152.121L152.202 109.202Z" fill="black"/>
<path d="M152.121 109.121L150.586 108.798L150.505 108.879L152.121 109.121Z" fill="black"/>
<path d="M152.364 109.121L152.606 109.202L152.364 109.121Z" fill="black"/>
<path d="M161.172 89.7272L162.788 93.4444L173.535 118.495L179.919 116.636L167.717 88.1919L164.485 88.9192L161.172 89.7272Z" fill="black"/>
<path d="M164.485 88.9192L167.717 88.1919L164.485 88.9192Z" fill="black"/>
<path d="M158.505 95.5455L161.737 103.141V103.222L164.889 110.495L166.101 113.404L167.879 117.525L172.646 118.414L165.455 101.606L160.606 90.5354L158.505 95.5455Z" fill="black"/>
<path d="M161.737 103.222V103.141L158.505 95.5454L158.424 95.6262L161.737 103.222Z" fill="black"/>
<path d="M160.606 90.5354V90.4546L158.424 95.4647L158.505 95.5455L160.606 90.5354Z" fill="black"/>
<path d="M158.424 95.6262L158.505 95.5454L158.424 95.4646V95.5454V95.6262Z" fill="black"/>
<path d="M164.889 110.495L166.101 113.404L164.889 110.495Z" fill="black"/>
<path d="M172.647 118.414L165.455 101.606L172.647 118.414Z" fill="black"/>
</g>
<defs>
<clipPath id="clip0">
<rect width="160" height="37.9798" fill="white" transform="translate(20 81)"/>
</clipPath>
</defs>
</svg>

<svg width="200" height="200" fill="none" xmlns="http://www.w3.org/2000/svg"><path fill="#fff" d="M0 0h200v200H0z"/><g clip-path="url(#clip0)" fill="#000"><path d="M25.818 89.97v9.616h.081c1.293-1.778 2.91-2.586 5.09-2.586 4.041 0 5.98 2.748 5.98 6.788v9.939h-5.656v-8.323c0-1.859-.242-3.879-2.586-3.879-2.262 0-2.99 1.94-2.99 3.879v8.323h-5.656V89.97h5.737zm25.132 13.252c-.243-1.535-1.698-2.586-3.233-2.586-1.616 0-2.99.889-3.394 2.586h6.627zm5.333 3.313h-11.96c0 2.344 1.212 3.637 3.556 3.637 1.212 0 2.1-.404 2.747-1.455h5.495c-.889 3.798-4.525 5.576-8.161 5.576-5.334 0-9.293-3.071-9.293-8.647 0-5.414 3.636-8.646 8.889-8.646 5.575 0 8.727 3.475 8.727 8.97v.565zm1.616 7.192h5.657V89.97h-5.657v23.757m16.485-7.919l3.798-8.323h6.384l-8.324 16.242h-3.717l-8.404-16.242h6.384l3.879 8.323zm21.091-2.586c-.243-1.535-1.697-2.586-3.233-2.586-1.616 0-2.99.889-3.394 2.586h6.627zm5.252 3.313h-11.96c0 2.344 1.213 3.637 3.556 3.637 1.212 0 2.101-.404 2.748-1.455h5.495c-.89 3.798-4.526 5.576-8.162 5.576-5.333 0-9.293-3.071-9.293-8.647C83.111 100.232 86.747 97 92 97c5.576 0 8.727 3.475 8.727 8.97v.565zm8.404 7.192h-5.656v-11.474h-1.859v-4.768h1.859v-4.849h5.656v4.849h3.233v4.768h-3.233v11.474m9.94 0h-5.657V97.485h5.657v16.242zm.404-21.333c0 1.778-1.455 3.232-3.152 3.232-1.778 0-3.151-1.454-3.151-3.232 0-1.778 1.454-3.232 3.151-3.232 1.697 0 3.152 1.454 3.152 3.232zm7.111 13.252c0 2.021 1.374 3.637 3.636 3.637 2.344 0 3.637-1.616 3.637-3.637 0-2.02-1.374-3.636-3.637-3.636-2.262-.081-3.636 1.616-3.636 3.636zm12.848 8.081h-5.656v-1.778h-.081c-.97 1.617-2.99 2.344-4.848 2.344-4.768 0-8.081-4.04-8.081-8.647 0-4.606 3.313-8.646 8-8.646 1.858 0 3.798.727 4.929 2.101v-1.616h5.657v16.242m13.737-5.576l6.384-1.696 1.374-3.233-2.829-6.626-.646 1.616-4.283 9.939zm14.303-20.767l-2.667-6.06-6.464 1.454 2.586 6.141 6.545-1.535zm-9.859 8.242l.081-.242 2.586-5.98-2.586-5.818-10.101 23.919 4.606.808 5.414-12.687z"/><path d="M160.202 89.404l-.162-.323-2.343-5.576-.081.08 2.586 5.819zm-.566 17.94l-5.252 1.292 9.374 1.697-.97-2.424-3.152-.565zm-7.434 1.858l-1.778-.323h.081l-3.394-.647-2.101 5.172 21.818 3.96-2.586-6.061-12.04-2.101z"/><path d="M150.586 108.798l-3.475-.566 3.394.647.081-.081z"/><path d="M150.505 108.879h-.081l1.778.323-.081-.081-1.616-.242zm2.101.323l-.242-.081-.162.081 12.04 2.101v-.081l-11.636-2.02z"/><path d="M152.202 109.202l.162-.081h-.243l.081.081z"/><path d="M152.121 109.121l-1.535-.323-.081.081 1.616.242zm.243 0l.242.081-.242-.081zm8.808-19.394l1.616 3.717 10.747 25.051 6.384-1.859-12.202-28.444-3.232.727-3.313.808z"/><path d="M164.485 88.92l3.232-.728-3.232.727zm-5.98 6.626l3.232 7.595v.081l3.152 7.273 1.212 2.909 1.778 4.121 4.767.889-7.191-16.808-4.849-11.07-2.101 5.01z"/><path d="M161.737 103.222v-.081l-3.232-7.596-.081.081 3.313 7.596z"/><path d="M160.606 90.535v-.08l-2.182 5.01.081.08 2.101-5.01zm-2.182 5.091l.081-.08-.081-.081v.161zm6.465 14.869l1.212 2.909-1.212-2.909zm7.758 7.919l-7.192-16.808 7.192 16.808z"/></g><defs><clipPath id="clip0"><path fill="#fff" transform="translate(20 81)" d="M0 0h160v37.98H0z"/></clipPath></defs></svg>
